assets/icons/star-yellow.svg

<svg width="24" height="25" viewBox="0 0 24 25" fill="none" xmlns="http://www.w3.org/2000/svg">
<path d="M21.947 9.67901C21.8842 9.49388 21.7685 9.33121 21.6142 9.21107C21.46 9.09094 21.2739 9.01861 21.079 9.00301L15.378 8.55001L12.911 3.08901C12.8325 2.91313 12.7047 2.76374 12.5431 2.65887C12.3815 2.55401 12.193 2.49815 12.0004 2.49805C11.8077 2.49794 11.6192 2.55359 11.4575 2.65828C11.2957 2.76296 11.1678 2.91221 11.089 3.08801L8.62203 8.55001L2.92103 9.00301C2.72948 9.01819 2.54636 9.08822 2.39358 9.20475C2.2408 9.32127 2.12482 9.47934 2.05952 9.66004C1.99422 9.84075 1.98236 10.0364 2.02537 10.2237C2.06838 10.411 2.16443 10.5819 2.30203 10.716L6.51503 14.823L5.02503 21.275C4.97978 21.4703 4.99428 21.6747 5.06665 21.8617C5.13901 22.0486 5.26589 22.2095 5.43083 22.3235C5.59577 22.4374 5.79115 22.4991 5.99161 22.5007C6.19208 22.5022 6.38837 22.4434 6.55503 22.332L12 18.702L17.445 22.332C17.6154 22.4451 17.8162 22.5033 18.0207 22.4988C18.2251 22.4944 18.4232 22.4274 18.5884 22.3069C18.7536 22.1865 18.878 22.0183 18.9448 21.8251C19.0116 21.6318 19.0176 21.4228 18.962 21.226L17.133 14.826L21.669 10.744C21.966 10.476 22.075 10.058 21.947 9.67901Z" fill="#FFCB8F"/>
</svg>

<svg width="24" height="25" fill="none" xmlns="http://www.w3.org/2000/svg"><path d="M21.947 9.679a1 1 0 0 0-.868-.676l-5.701-.453-2.467-5.461a.997.997 0 0 0-1.822-.001L8.622 8.55l-5.701.453a1 1 0 0 0-.619 1.713l4.213 4.107-1.49 6.452a1 1 0 0 0 1.53 1.057L12 18.702l5.445 3.63a1.001 1.001 0 0 0 1.517-1.106l-1.829-6.4 4.536-4.082c.297-.268.406-.686.278-1.065z" fill="#FFCB8F"/></svg>
